X: 1485
T:Sweeney's Buttermilk
T:Charlie Lennon's No. 2
T:Buttermilk Mary
S:irtrad-l, Juergen Gier, 11/97
C:Brendan McGlinchey
S:Brendan McGlinchey
Z:Juergen.Gier@post.rwth-aachen.de
M:4/4
L:1/8
K:BDor
FB~B2 FB~B2|dcBc AE~E2|FB~B2 ABce|afec Baga|\
f2ec fecf|ecBc BAFE|FB~B2 ABce|1afec B4:|2faec B2BA|:\
FBdc BF~F2|EAcB AE~E2|FBdc (3Bcd fb|afec dDcD|\
Bcde fBBg|afec ABce|fe (3fga bafb|afec B2BA:|
